/* XPM */
static char *accept_xpm[] = {
/* columns rows colors chars-per-pixel */
"24 24 257 2",
"   c black",
".  c gray100",
"X  c #FAEDFA",
"o  c #FFF5FF",
"O  c #FDF5FD",
"+  c #FFF9FF",
"@  c #FFFBFF",
"#  c #F2EFF2",
"$  c #FFFDFF",
"%  c #F7F5F7",
"&  c #ECEAEC",
"*  c #EBE9EB",
"=  c #E7E5E7",
"-  c #FDFCFD",
";  c #FCFBFC",
":  c #F8F7F8",
">  c #EEEDEE",
",  c #F9E9FA",
"<  c #F5E7F6",
"1  c #F6EAF7",
"2  c #FEF6FF",
"3  c #FAEFFC",
"4  c #FAF2FC",
"5  c #FDF9FE",
"6  c #FBF8FC",
"7  c #FAF7FB",
"8  c #F7F4F8",
"9  c #F3F2F4",
"0  c #006C37",
"q  c #006A38",
"w  c #006D35",
"e  c #006F34",
"r  c #006D33",
"t  c #00752F",
"y  c #00722E",
"u  c #00722D",
"i  c #006C2C",
"p  c #006C2B",
"a  c #00782D",
"s  c #00742D",
"d  c #00712A",
"f  c #00772A",
"g  c #007C2A",
"h  c #007C25",
"j  c #007E25",
"k  c #006C1F",
"l  c #007E20",
"z  c #007D20",
"x  c #006E1C",
"c  c #006C1C",
"v  c #008216",
"b  c #007D16",
"n  c #007915",
"m  c #008A11",
"M  c #008610",
"N  c #006F08",
"B  c #006D07",
"V  c #006B08",
"C  c #006907",
"Z  c #01940D",
"A  c #009606",
"S  c #009208",
"D  c #008D08",
"F  c #007805",
"G  c #006A06",
"H  c #05880C",
"J  c #41A546",
"K  c #73B676",
"L  c #009503",
"P  c #008703",
"I  c #007104",
"U  c #006F04",
"Y  c #006B04",
"T  c #006902",
"R  c #006804",
"E  c #31A733",
"W  c #009A00",
"Q  c #009800",
"!  c #009702",
"~  c #009700",
"^  c #009500",
"/  c #009300",
"(  c #009100",
")  c #008F00",
"_  c #018900",
"`  c #008700",
"'  c #008500",
"]  c #018200",
"[  c #008000",
"{  c #007F00",
"}  c #007A00",
"|  c #007900",
" . c #007300",
".. c #007000",
"X. c #006C00",
"o. c #006900",
"O. c #006600",
"+. c #006500",
"@. c #029901",
"#. c #028A01",
"$. c #049A01",
"%. c #039A01",
"&. c #059E02",
"*. c #049B02",
"=. c #059702",
"-. c #058802",
";. c #059C03",
":. c #089D04",
">. c #079D04",
",. c #098F06",
"<. c #0A9107",
"1. c #089F00",
"2. c #059800",
"3. c #0AA002",
"4. c #089E02",
"5. c #0A9E05",
"6. c #0DA106",
"7. c #0E9F06",
"8. c #0D9B08",
"9. c #119E0B",
"0. c #159710",
"q. c #0CA002",
"w. c #0FA103",
"e. c #10A204",
"r. c #11A405",
"t. c #15A309",
"y. c #18A70C",
"u. c #169B0D",
"i. c #239D1A",
"p. c #4CB445",
"a. c #5ABA54",
"s. c #65BE5F",
"d. c #0E9C00",
"f. c #17A507",
"g. c #17A009",
"h. c #17A40A",
"j. c #16A30A",
"k. c #1CA70D",
"l. c #2BA320",
"z. c #37B429",
"x. c #BCE0B8",
"c. c #17A705",
"v. c #1AA806",
"b. c #1EA90D",
"n. c #1EA70E",
"m. c #24AC11",
"M. c #3DB32D",
"N. c #BFE3BA",
"B. c #18A802",
"V. c #1DAA05",
"C. c #1BA905",
"Z. c #1AA705",
"A. c #29AD14",
"S. c #37B522",
"D. c #45B434",
"F. c #4AB83A",
"G. c #58BD47",
"H. c #B6DCB0",
"J. c #BFE3B9",
"K. c #D1E9CD",
"L. c #1DAA02",
"P. c #1FAA04",
"I. c #20AB06",
"U. c #23AD09",
"Y. c #29AA10",
"T. c #2FB015",
"R. c #30B016",
"E. c #31B118",
"W. c #3EB627",
"Q. c #48B634",
"!. c #BBDDB5",
"~. c #2CAF10",
"^. c #36B319",
"/. c #3AB61F",
"(. c #48BA2E",
"). c #3AB41B",
"_. c #3BB51C",
"`. c #3DB71D",
"'. c #3BB61D",
"]. c #6AC853",
"[. c #75CB5E",
"{. c #3AB813",
"}. c #39B714",
"|. c #3FB71D",
" X c #40B71E",
".X c #41B91F",
"XX c #42B920",
"oX c #44BA21",
"OX c #46BC22",
"+X c #46BB22",
"@X c #49BD24",
"#X c #49BE25",
"$X c #65C846",
"%X c #73CD57",
"&X c #72CB56",
"*X c #7DD262",
"=X c #4ABD24",
"-X c #4DBF26",
";X c #50C228",
":X c #55C232",
">X c #7ACF5C",
",X c #80D264",
"<X c #4DC123",
"1X c #52C127",
"2X c #50C027",
"3X c #52C128",
"4X c #51C128",
"5X c #55C32A",
"6X c #57C52D",
"7X c #60C63A",
"8X c #86D667",
"9X c #85D366",
"0X c #91D976",
"qX c #5AC62B",
"wX c #5AC52C",
"eX c #5BC62D",
"rX c #67CB3B",
"tX c #77D052",
"yX c #8CD96A",
"uX c #96DC78",
"iX c #5EC82C",
"pX c #61CA2E",
"aX c #5DC62D",
"sX c #65CC31",
"dX c #64CB31",
"fX c #63C930",
"gX c #60C930",
"hX c #64CC32",
"jX c #61CA31",
"kX c #65CB32",
"lX c #66CC33",
"zX c #68CE35",
"xX c #6BCE3A",
"cX c #68CB3A",
"vX c #6CCE3C",
"bX c #6BCC3C",
"nX c #7DD354",
"mX c #94DB72",
"MX c #97DD75",
"NX c #66CB32",
"BX c #6ECE3D",
"VX c #97DE72",
"CX c #9ADF76",
"ZX c #9EE17A",
"AX c #9FDF7E",
"SX c #A1E17B",
"DX c #A2E27E",
"FX c #B5E19C",
"GX c #F3F8ED",
"HX c #FFFFFD",
"JX c #FFFFFE",
"KX c #F8F7F5",
"LX c #FDFCFB",
"PX c #FBFAFA",
"IX c #F4F4F4",
"UX c gray100",
"YX c None",
/* pixels */
"YXYXYXYXYXYXYXYXYXYXYXYXYXYXYXYXYXYXYXYXYXYXYXYX",
"YXYXYXYXYXYXYXYXYX` _ <.,.' [ YXYXYXYXYXYXYXYXYX",
"YXYXYXYXYXYXYX>.Q.>XyX8X*X%XG.l.-.YXYXYXYXYXYXYX",
"YXYXYXYXYX~ D.CXZXmXtX7X-X.X)./.S.u.` YXYXYXYXYX",
"YXYXYXYX) &XSXAXnXpXqX1X=XXX_.E.A.m.g.{ YXYXYXYX",
"YXYXYX^ &XDXMXzXsXdXeX3X=XXX_.E.A.b.h.8.} YXYXYX",
"YXYXYXD.DXCXhXlXNXjXwX4X@X.X).R.v.G.T.r.H YXYXYX",
"YXYX%.VXAXxXkXlXfXaX5X-X+X X^.B.!.o # :XZ F YXYX",
"YXYXM.uXnXiXgXgXeX6X2X=XoX'.C.!.O 9 2 FX9.b YXYX",
"YX' ].0X6XqXaXeX5X2X-XOX`.V.x.+ : 6 KXrX! j ..YX",
"YX' ,X>X<XY.2.~.;X#XoX|.I.J.@ PX@ PXcX1.L g U YX",
"YX#.*X$Xd.K , a.U.oX`.I.N.$ - . HXbXq.@.S a N YX",
"YX_ [.(.J < = , s.L.P.J.$ $ . HXxXw.;.W m t B YX",
"YX[ ].W.E < = * 4 H.K.@ ; . JXvXe.>.%.W l y Y YX",
"YX{ F.W.c.p.1 & > 8 7 ; . JXvXe.:.$.Q ^ e u o.YX",
"YXYXi.M.m.C.a.3 # IX: $ HXvXe.:.*.~ ^ v 0 x YXYX",
"YXYX] z.k.n.C.[.o % 5 LXBXw.>.$.~ ^ ( 0 r G YXYX",
"YXYXYX0.y.j.t.v.9X% GXBX3.$.@.Q ^ / y 0 k YXYXYX",
"YXYXYX[ 8.6.7.5.f.{.}.4.W Q ~ ^ ( u q p o.YXYXYX",
"YXYXYXYX| =.&.;.%.W Q ~ ^ ^ / M w w i T YXYXYXYX",
"YXYXYXYXYX .P A Q Q ~ ^ D v u w r k O.YXYXYXYXYX",
"YXYXYXYXYXYXYXI n z h f s y d c C YXYXYXYXYXYXYX",
"YXYXYXYXYXYXYXYXYXX.Y B V R +.YXYXYXYXYXYXYXYXYX",
"YXYXYXYXYXYXYXYXYXYXYXYXYXYXYXYXYXYXYXYXYXYXYXYX"
};
