/* XPM */
static const char * curve_xpm[] = {
"38 37 172 2",
"  	c None",
". 	c #000000",
"+ 	c #DEDEDE",
"@ 	c #E7E7E7",
"# 	c #ADADAD",
"$ 	c #B5B5B5",
"% 	c #EFEFEF",
"& 	c #BDBDBD",
"* 	c #C6C6C6",
"= 	c #F7F7F7",
"- 	c #D6D6D6",
"; 	c #9C9C9C",
"> 	c #CECECE",
", 	c #949494",
"' 	c #8C8C8C",
") 	c #A5A5A5",
"! 	c #E7A5A5",
"~ 	c #E7C7C7",
"{ 	c #C72121",
"] 	c #EFDFDF",
"^ 	c #CE4242",
"/ 	c #CE4A4A",
"( 	c #D67474",
"_ 	c #EFCFCF",
": 	c #C67C7C",
"< 	c #BE1010",
"[ 	c #C68C8C",
"} 	c #E7DFDF",
"| 	c #BD3939",
"1 	c #EFE7E7",
"2 	c #CE6C6C",
"3 	c #C6A6A6",
"4 	c #E7CFCF",
"5 	c #B56B6B",
"6 	c #D69C9C",
"7 	c #C61818",
"8 	c #DE9C9C",
"9 	c #BDC6C7",
"0 	c #AD6363",
"a 	c #BE0808",
"b 	c #BD9595",
"c 	c #BE1818",
"d 	c #BD5B5B",
"e 	c #C7BDBD",
"f 	c #CE6464",
"g 	c #DFE7E7",
"h 	c #C64242",
"i 	c #E7EFEF",
"j 	c #848484",
"k 	c #DED6D6",
"l 	c #C73131",
"m 	c #B56363",
"n 	c #DECECE",
"o 	c #737373",
"p 	c #D6A6A6",
"q 	c #CE3232",
"r 	c #A59D9D",
"s 	c #D67C7C",
"t 	c #D69494",
"u 	c #B5BDBD",
"v 	c #AEC1AB",
"w 	c #5D8957",
"x 	c #BBC2BA",
"y 	c #A5ADAD",
"z 	c #DEBEBE",
"A 	c #BDB5B5",
"B 	c #8FBE88",
"C 	c #6CB163",
"D 	c #4A8F41",
"E 	c #4E9C44",
"F 	c #8FB789",
"G 	c #C2C9C1",
"H 	c #DEA6A6",
"I 	c #ADA5A5",
"J 	c #A4A99D",
"K 	c #449A38",
"L 	c #57AA4C",
"M 	c #71896D",
"N 	c #B5C1B3",
"O 	c #37952B",
"P 	c #64A95B",
"Q 	c #7D927A",
"R 	c #CE7C7C",
"S 	c #BCD3B9",
"T 	c #56924E",
"U 	c #3D9731",
"V 	c #7EBC76",
"W 	c #C9D2C8",
"X 	c #95BE90",
"Y 	c #808480",
"Z 	c #3A8B2F",
"` 	c #83AF84",
" .	c #D6AEAE",
"..	c #AD7B7B",
"+.	c #E7DFE7",
"@.	c #9DC098",
"#.	c #50A145",
"$.	c #47943C",
"%.	c #A3C89E",
"&.	c #D0D9CF",
"*.	c #EFEFE7",
"=.	c #6AAB61",
"-.	c #DEDED6",
";.	c #548B4D",
">.	c #226A36",
",.	c #AE1031",
"'.	c #A5B9A9",
").	c #E7D7D7",
"!.	c #7DBB6F",
"~.	c #32952B",
"{.	c #65B15B",
"].	c #92A38F",
"^.	c #797D79",
"/.	c #3F8B35",
"(.	c #6C8668",
"_.	c #94948C",
":.	c #9D314B",
"<.	c #741052",
"[.	c #6C9567",
"}.	c #AD8585",
"|.	c #43943C",
"1.	c #3B912F",
"2.	c #6D9D67",
"3.	c #ADB5AD",
"4.	c #B5B5AD",
"5.	c #94B78F",
"6.	c #948C8C",
"7.	c #C694A5",
"8.	c #4F9046",
"9.	c #A59595",
"0.	c #8ABD83",
"a.	c #57A14D",
"b.	c #AFC9AB",
"c.	c #9C6C6C",
"d.	c #D6CECE",
"e.	c #B6C9B3",
"f.	c #59AF55",
"g.	c #E7E7DF",
"h.	c #B3B9B3",
"i.	c #AE4242",
"j.	c #D6DED6",
"k.	c #DED6DE",
"l.	c #828C80",
"m.	c #36902A",
"n.	c #9DBE90",
"o.	c #489B3D",
"p.	c #4C8444",
"q.	c #8C8C84",
"r.	c #AD2121",
"s.	c #95847B",
"t.	c #9C949C",
"u.	c #63915D",
"v.	c #ADADA5",
"w.	c #979C96",
"x.	c #8C8484",
"y.	c #CE9C9C",
"z.	c #CE7474",
"A.	c #957B7B",
"B.	c #A5ADA5",
"C.	c #DFE7DF",
"D.	c #AD2929",
"E.	c #D6C6C6",
"F.	c #8C948C",
"G.	c #5DA95B",
"H.	c #CE9C94",
"I.	c #9C4A4A",
"J.	c #CEBEBE",
"K.	c #CED6D6",
"L.	c #B53141",
"M.	c #BD3131",
"N.	c #C67474",
"O.	c #948C94",
"        . . . . . . . . . . . . . . . . . . . . . . . . . . . . . . . . +   ",
"        . @ @ @ @ # @ @ @ $ % % % % & % % % * % = % = $ = = = - = = = . $   ",
"  ;     . + @ + @ # @ @ @ $ @ @ @ % $ @ % % & % % % % $ % = = > = = = . ,   ",
"  '     . @ + @ + # @ @ @ $ @ @ % @ & @ % @ * % % % % $ = % = > = = = . ,   ",
"        . ) ) ) # # # # # $ # $ $ $ $ & & & & & * & * $ * > * > > > > . ,   ",
"        . @ + @ + # @ @ @ # @ % @ @ $ @ % % & % % % % $ % = % * = % ! . ,   ",
"- ;     . + + + @ ) + + @ # @ @ @ @ $ @ @ % $ % % % % $ % % = * = ~ { . ,   ",
"$ ; #   . + @ + + ) @ @ + # @ @ @ @ $ @ % @ & % @ % % $ = % % * ] ^ / . ,   ",
"- ; $   . + + + + ) @ @ @ # @ @ @ @ $ @ @ % $ % @ % @ $ % % % * ( { _ . ,   ",
"        . ) ; ) ) ) ) ) ) # # # # # $ $ $ $ $ $ & & & $ * & * : < [ * . ,   ",
"$ ; *   . + + + + ) + + @ ) @ + @ @ # @ @ @ $ % @ @ % $ % } ^ | ] % % . ,   ",
"- $ #   . + + + + ; + + + ) @ + @ + # @ @ @ $ @ @ % @ $ 1 2 { 3 % % % . ,   ",
"+ # $   . + - + + ; + + + ) + @ + 4 5 @ @ @ # @ @ @ % $ 6 7 8 9 % % % . ,   ",
"        . , ; ; ; ; ) ) ) ) ) ) # 0 a # # # $ $ $ $ $ b c d & & e 9 e . ,   ",
"        . + + - + ; + + + ) + @ + f c g @ @ # @ @ @ @ h ^ ] i & % % % . ,   ",
"  j -   . - + + - ; + + + ) + + k l m n } @ # @ @ @ @ { ~ i % & 1 % % . ,   ",
"- o +   . + - - + ; + + + ; + + p q r s g @ # @ @ @ t 8 i @ 1 u % @ % . ,   ",
"+ ' #   . $ $ $ v w x $ $ ; $ $ f 2 ) l n $ y $ $ z { $ $ $ $ A $ $ B . ,   ",
"        . - - - C D E F G ; + p l k r H l n I + 2 { z $ @ @ 1 J B K L . ,   ",
"- ; $   . - - x E M N O P Q + f f + ) + / R y t 7 6 @ $ @ @ S T U V W . ,   ",
"  - #   . - - X E Y - X E Z ` l p + ; +  .q ..{ 2 } @ $ +.@.#.$.%.&.*.. ,   ",
"  ; $   . - - =.C , - -.N ;.>.,.'.+ ; + + h c h ).g } G !.~.{.].@ @ @ . ,   ",
"        . ' ^./.(._., , , ; :.<.Z [.; ; ) 0 < }.) ) # |.1.2.3.$ 4.$ $ . ,   ",
"        . - 5.E x ' - - + 6.l 7.C U 8.+ + + 9.+ g + 0.a.b.@ @ # @ &.@ . ,   ",
"  ; $   . - P C - ' - - - c.l d.-.5./.B G + ) + e.f.U $ @ g.@ # @ @ @ . ,   ",
"  $ #   . h.E 5.- ' - - G i.f j.k.+ l.m.{.N ; n.o.E @.$ + @ W # @ @ @ . ,   ",
"        . p.p.q.j ' ' c.r.< s., , , t.; l.8.m.u.; ) ) $ ) v.w.# # # # . ,   ",
"        . E 5.- > x.y.l z.A.G k G -., k + + l.+ + + + $ @ + @ B.+.C.@ . ,   ",
"  j -   . E h.> y.D.l E.- F.- - - - , + j.k.; + + + + $ + + +.) @ +.C.. ,   ",
"  $ +   . G.H.h l I.J.K.- ' - - - j., - + j.; -.+ + + $ + + C.) C.+.@ . ,   ",
"  # -   . L.M.N.J.j - d.- ' - - - - O.- - k., + - + + $ + W } ) +.C.} . ,   ",
"        . . . . . . . . . . . . . . . . . . . . . . . . . . . . . . . . ,   ",
"        + $ ; , , , , , , , , , , , , , , , , , , , , , , , , , , , , ; $   ",
"                                                                            ",
"          j -     % ;       ; ; %     o       $ ; *     ; -       $ j       ",
"          $ -       *         ; %     o       - $ #   - ' ;       - $       ",
"          # +     - '       ; ; %     o +     - # $   % ; ;       $ -       "};
