/* XPM */
static const char * group_xpm[] = {
"32 32 417 2",
"  	c None",
". 	c #7D7D7D",
"+ 	c #818181",
"@ 	c #6B6B6B",
"# 	c #808080",
"$ 	c #7F7F7F",
"% 	c #616161",
"& 	c #696969",
"* 	c #5E5E5E",
"= 	c #595959",
"- 	c #545454",
"; 	c #515151",
"> 	c #3A3A3A",
", 	c #797979",
"' 	c #7E7E7E",
") 	c #656565",
"! 	c #5F5F5F",
"~ 	c #575757",
"{ 	c #535353",
"] 	c #4F4F4F",
"^ 	c #323232",
"/ 	c #494949",
"( 	c #3F3F3F",
"_ 	c #3C3C3C",
": 	c #303030",
"< 	c #282828",
"[ 	c #151515",
"} 	c #676767",
"| 	c #5A5A5A",
"1 	c #5D5D5D",
"2 	c #555555",
"3 	c #525252",
"4 	c #404040",
"5 	c #585858",
"6 	c #414141",
"7 	c #2D2D2D",
"8 	c #232323",
"9 	c #A9A9A9",
"0 	c #FCFCFC",
"a 	c #898989",
"b 	c #6C6C6C",
"c 	c #2A2A2A",
"d 	c #8B8B8B",
"e 	c #212121",
"f 	c #4E4E4E",
"g 	c #4C4C4C",
"h 	c #464646",
"i 	c #141414",
"j 	c #E3E3E3",
"k 	c #EDEDED",
"l 	c #737373",
"m 	c #565656",
"n 	c #6D6D6D",
"o 	c #292929",
"p 	c #080808",
"q 	c #FBFBFB",
"r 	c #ECECEC",
"s 	c #E9E9E9",
"t 	c #EAEAEA",
"u 	c #DCDCDC",
"v 	c #DADADA",
"w 	c #666666",
"x 	c #4D4D4D",
"y 	c #FAFAFA",
"z 	c #1A1A1A",
"A 	c #0C0C0C",
"B 	c #101010",
"C 	c #0B0B0B",
"D 	c #E2E2E2",
"E 	c #EBEBEB",
"F 	c #E8E8E8",
"G 	c #D9D9D9",
"H 	c #D3D3D3",
"I 	c #A1A1A1",
"J 	c #E4E4E4",
"K 	c #DFDFDF",
"L 	c #D4D4D4",
"M 	c #C7C7C7",
"N 	c #C1C0C0",
"O 	c #353535",
"P 	c #DDDDDD",
"Q 	c #F1F1F1",
"R 	c #F6F6F6",
"S 	c #CFCFCF",
"T 	c #BBBBBB",
"U 	c #B3B3B3",
"V 	c #111111",
"W 	c #D1D1D1",
"X 	c #C5C4C4",
"Y 	c #B9B9B9",
"Z 	c #B2B2B2",
"` 	c #CDCDCD",
" .	c #C1C1C1",
"..	c #B6B5B5",
"+.	c #5C5C5C",
"@.	c #F5F5F5",
"#.	c #E6E6E6",
"$.	c #E0E0E0",
"%.	c #D6D6D6",
"&.	c #CCCCCC",
"*.	c #B9B8B8",
"=.	c #BFBFBF",
"-.	c #CBCACA",
";.	c #BEBEBE",
">.	c #A9A8A8",
",.	c #D2D2D2",
"'.	c #C6C6C6",
").	c #BABABA",
"!.	c #B0AFAF",
"~.	c #A8A6A6",
"{.	c #ADACAC",
"].	c #A0A0A0",
"^.	c #E1E1E1",
"/.	c #DBDBDB",
"(.	c #D0D0D0",
"_.	c #BCBBBB",
":.	c #C3C2C2",
"<.	c #B8B7B7",
"[.	c #AEADAD",
"}.	c #A6A5A5",
"|.	c #A09F9F",
"1.	c #C0BFBF",
"2.	c #B7B7B7",
"3.	c #B2B1B1",
"4.	c #AEAEAE",
"5.	c #ACACAC",
"6.	c #D5D5D5",
"7.	c #CACACA",
"8.	c #C0C0C0",
"9.	c #B7B6B6",
"0.	c #A5A5A5",
"a.	c #B6B6B6",
"b.	c #B0B1B1",
"c.	c #ACABAB",
"d.	c #AAA9A9",
"e.	c #B4B3B3",
"f.	c #D8D8D8",
"g.	c #BBBABA",
"h.	c #A2A1A1",
"i.	c #9D9D9D",
"j.	c #B0B0B0",
"k.	c #B4B5B3",
"l.	c #C2C2C2",
"m.	c #BDBDBD",
"n.	c #B1B1B1",
"o.	c #BEBDBE",
"p.	c #CBCACB",
"q.	c #AFAFAF",
"r.	c #ABAAAA",
"s.	c #A8A7A7",
"t.	c #A5A5A6",
"u.	c #B9BABB",
"v.	c #BCBCBC",
"w.	c #B0B0B1",
"x.	c #C8B7A9",
"y.	c #369919",
"z.	c #83BA6F",
"A.	c #E1DCE3",
"B.	c #C3C1C3",
"C.	c #B8B8B8",
"D.	c #D2CED3",
"E.	c #B7D8B3",
"F.	c #148B0E",
"G.	c #509D4E",
"H.	c #BCB9BB",
"I.	c #B5B4B4",
"J.	c #B1B0B0",
"K.	c #B99A88",
"L.	c #DE5801",
"M.	c #DDB99B",
"N.	c #D4DADE",
"O.	c #BCBDBE",
"P.	c #D7DEE3",
"Q.	c #E89D6E",
"R.	c #D85005",
"S.	c #349519",
"T.	c #41A120",
"U.	c #49AA23",
"V.	c #61BA3B",
"W.	c #9DD984",
"X.	c #A3DD8E",
"Y.	c #6BBF59",
"Z.	c #229A13",
"`.	c #1C9215",
" +	c #10870D",
".+	c #619E62",
"++	c #BCBBBC",
"@+	c #ADB2B6",
"#+	c #D75D12",
"$+	c #E0680F",
"%+	c #E66E0A",
"&+	c #F0953E",
"*+	c #FBC17F",
"=+	c #F9BA79",
"-+	c #EC8631",
";+	c #E26108",
">+	c #DC5708",
",+	c #D64A05",
"'+	c #329418",
")+	c #3F9E1E",
"!+	c #4BA924",
"~+	c #54B229",
"{+	c #5BBA2E",
"]+	c #5DC231",
"^+	c #54C02F",
"/+	c #3EAF25",
"(+	c #2DA21C",
"_+	c #249820",
":+	c #6CA16B",
"<+	c #B9BFB9",
"[+	c #B4B4B4",
"}+	c #B4B5B5",
"|+	c #C0A593",
"1+	c #D98743",
"2+	c #EB760C",
"3+	c #EF8616",
"4+	c #F59018",
"5+	c #F28815",
"6+	c #EC7911",
"7+	c #E66A0D",
"8+	c #DF5D09",
"9+	c #D95106",
"0+	c #D44604",
"a+	c #3A9A1C",
"b+	c #4AA623",
"c+	c #54B029",
"d+	c #5CBA2E",
"e+	c #61C131",
"f+	c #62C834",
"g+	c #57C431",
"h+	c #3EB222",
"i+	c #5EAD68",
"j+	c #AAC8DB",
"k+	c #C1D0D6",
"l+	c #D7D6D5",
"m+	c #EAEBEB",
"n+	c #96BED2",
"o+	c #B0A895",
"p+	c #EF8112",
"q+	c #F89619",
"r+	c #F68F17",
"s+	c #EF8013",
"t+	c #E9720E",
"u+	c #E3640B",
"v+	c #DD5808",
"w+	c #D74C05",
"x+	c #47A322",
"y+	c #54AE28",
"z+	c #5EB82C",
"A+	c #64C032",
"B+	c #68C935",
"C+	c #63CB35",
"D+	c #54C22E",
"E+	c #6AB671",
"F+	c #AFCCDE",
"G+	c #B2D1DD",
"H+	c #B4D2DE",
"I+	c #C8DEE7",
"J+	c #EBF5F8",
"K+	c #ECF1F3",
"L+	c #ECF2F4",
"M+	c #DEECF1",
"N+	c #AAC9D6",
"O+	c #A3C3D2",
"P+	c #9DBFCF",
"Q+	c #AAAFA6",
"R+	c #F3800E",
"S+	c #F89418",
"T+	c #F38714",
"U+	c #ED7810",
"V+	c #E76A0C",
"W+	c #E05D09",
"X+	c #DB5106",
"Y+	c #53AC26",
"Z+	c #5EB62C",
"`+	c #67BF31",
" @	c #6CC835",
".@	c #6CCE38",
"+@	c #62CB35",
"@@	c #4DB036",
"#@	c #B3CFE1",
"$@	c #B8D4E0",
"%@	c #BCD8E3",
"&@	c #BEDAE5",
"*@	c #BDD9E4",
"=@	c #BAD6E2",
"-@	c #B6D3E0",
";@	c #B0CFDC",
">@	c #AECDDA",
",@	c #ACCCD8",
"'@	c #A6C6D4",
")@	c #A0C2D3",
"!@	c #C4966B",
"~@	c #F38614",
"{@	c #F68C15",
"]@	c #F17E12",
"^@	c #EA700D",
"/@	c #E4630A",
"(@	c #DE5707",
"_@	c #DC5406",
":@	c #5DB42C",
"<@	c #68BE31",
"[@	c #6FC836",
"}@	c #73CF39",
"|@	c #6BCE38",
"1@	c #59C330",
"2@	c #7EBA8D",
"3@	c #B9D5E1",
"4@	c #C1DCE6",
"5@	c #C5DFE9",
"6@	c #C2DDE7",
"7@	c #BED9E4",
"8@	c #BAD7E2",
"9@	c #B5D2DE",
"0@	c #B1D0DC",
"a@	c #B0CFDB",
"b@	c #AFCEDA",
"c@	c #ACCBD8",
"d@	c #A8C7D5",
"e@	c #A1C1D1",
"f@	c #EB6E0D",
"g@	c #F78F15",
"h@	c #F48513",
"i@	c #EE770F",
"j@	c #E7690B",
"k@	c #E15D08",
"l@	c #E15B07",
"m@	c #65B92F",
"n@	c #72C635",
"o@	c #77CF39",
"p@	c #75D23B",
"q@	c #69CD37",
"r@	c #45B020",
"s@	c #ADCFD2",
"t@	c #C8E1EB",
"u@	c #CCE4ED",
"v@	c #CAE2EC",
"w@	c #C4DFE8",
"x@	c #BEDBE5",
"y@	c #BBD6E2",
"z@	c #B5D3DF",
"A@	c #B3D0DC",
"B@	c #B2D0DC",
"C@	c #A4C8D7",
"D@	c #CD804B",
"E@	c #F58A14",
"F@	c #F68813",
"G@	c #F17D10",
"H@	c #EB6F0C",
"I@	c #E5620A",
"J@	c #5AB52B",
"K@	c #71CB37",
"L@	c #76D43B",
"M@	c #69CF38",
"N@	c #45AA28",
"O@	c #C2DBEE",
"P@	c #C6E0EA",
"Q@	c #CDE5EE",
"R@	c #CFE6EF",
"S@	c #C5DEE8",
"T@	c #BEDAE4",
"U@	c #B9D6E2",
"V@	c #B5D2DF",
"W@	c #B1CFDC",
"X@	c #B3D1DD",
"Y@	c #ADCDDA",
"Z@	c #A7C7D5",
"`@	c #BB9D83",
" #	c #F28011",
".#	c #F78A13",
"+#	c #E5640A",
"@#	c #4B9F49",
"##	c #C2DCE9",
"$#	c #C9E2EB",
"%#	c #CEE6EE",
"&#	c #CBE3ED",
"*#	c #C3DEE8",
"=#	c #AFCFDB",
"-#	c #AFCEDB",
";#	c #B2CFDB",
">#	c #A7C6D4",
",#	c #A6B3B6",
"'#	c #CCE5EE",
")#	c #C2DCE7",
"!#	c #B8D5E1",
"~#	c #AFCDDA",
"{#	c #ABCAD7",
"]#	c #A8C8D5",
"^#	c #9BBCCC",
"/#	c #C0DBE6",
"(#	c #C6E0E9",
"_#	c #C1DCE7",
":#	c #BDD9E3",
"<#	c #AECED9",
"[#	c #A9C9D6",
"}#	c #A3C4D2",
"|#	c #9FBFCF",
"1#	c #97BACA",
"2#	c #A3C0CD",
"3#	c #CBE3EC",
"4#	c #C5E0E9",
"5#	c #C1DBE6",
"6#	c #BBD8E3",
"7#	c #B7D4E0",
"8#	c #AECCD9",
"9#	c #A5C4D3",
"0#	c #A2C2D1",
"a#	c #9FC0D0",
"b#	c #98B9C9",
"c#	c #ADC8D5",
"d#	c #B8D2DE",
"e#	c #AACAD7",
"f#	c #A2C1D1",
"g#	c #95B5C5",
"h#	c #8DAEBF",
"i#	c #96B5C3",
"j#	c #93B2C1",
"                                                                ",
"                                                                ",
"                                                                ",
"                                                                ",
"              . + @                         # $ %               ",
"          & * = - ; >       , + ' &     ) ! ~ { ] ^             ",
"          * / ( _ : < [ } | 1 ~ 2 3 4 5 ~ _ 6 > 7 8             ",
"        > 9 0 a 2 b 6 c d e f g h > : i j k l m n o p           ",
"        g q r s t u v w x y ] z z A B C D E s F G H '           ",
"        I E J K L M N O P Q R S T G U V M j P W X Y Z           ",
"          K G `  ...Y +.@.E F #.$.%.&.*.=.%.-.;.U >.            ",
"          ,.'.).!.~.{.].F j ^./.(.'._.!.M :.<.[.}.|.            ",
"          1.2.3.4.5.>.$.K P 6.7.8.9.[.0.1.a.b.[.c.d.            ",
"            ).Y Y e.    f.S X g.3.>.h.i.  ).Y ).j.              ",
"          k.l.m.Y n.o.  p.=.a.q.r.s.t.  u. .v.a.w.x.            ",
"        y.z.A.B.C.D.E.F.G.H.I.Z n.J.K.L.M.N.O.u.P.Q.R.          ",
"      S.T.U.V.W.X.Y.Z.`. +.+++T m.@+#+$+%+&+*+=+-+;+>+,+        ",
"    '+)+!+~+{+]+^+/+(+_+:+<+=.T [+}+|+1+2+3+4+5+6+7+8+9+0+      ",
"    a+b+c+d+e+f+g+h+i+j+k+l+T U 4.;.m+n+o+p+q+r+s+t+u+v+w+      ",
"    x+y+z+A+B+C+D+E+F+G+H+I+J+K+L+M+N+O+P+Q+R+S+T+U+V+W+X+      ",
"    Y+Z+`+ @.@+@@@#@$@%@&@*@=@-@;@>@,@N+'@)@!@~@{@]@^@/@(@_@    ",
"    :@<@[@}@|@1@2@3@4@5@5@6@7@8@9@0@a@b@c@d@e@f@g@h@i@j@k@l@    ",
"    m@n@o@p@q@r@s@4@t@u@v@w@x@y@z@A@B@B@a@c@C@D@E@F@G@H@I@      ",
"      J@K@L@M@N@O@P@Q@R@u@S@T@U@V@W@B@X@W@Y@Z@`@ #.#G@+#        ",
"              @###$#%#R@&#*#T@3@9@=#-#;#-#c@>#,#                ",
"                4@v@Q@'#t@)#*@!#H+~#c@,@{#]#O+^#                ",
"                /#$#&#v@(#_#:#$@X@<#[#Z@'@}#|#1#                ",
"                2#t@3#$#4#5#6#7#G+8#[#9#0#a#b#                  ",
"                    c#d#5@6@*@!#X@b@e#f#g#h#                    ",
"                              i#j#                              ",
"                                                                ",
"                                                                "};
