/* XPM */
static const char * reg_xpm[] = {
"38 45 1132 2",
"  	c #000000",
". 	c #010101",
"+ 	c #010000",
"@ 	c #020103",
"# 	c #010102",
"$ 	c #060203",
"% 	c #0B0209",
"& 	c #1C0918",
"* 	c #39182F",
"= 	c #4C2F40",
"- 	c #653E56",
"; 	c #754D5E",
"> 	c #7C5465",
", 	c #7D5869",
"' 	c #7C5868",
") 	c #684857",
"! 	c #3E2432",
"~ 	c #190B15",
"{ 	c #060107",
"] 	c #000100",
"^ 	c #000001",
"/ 	c #020102",
"( 	c #190319",
"_ 	c #5C254D",
": 	c #9D5E81",
"< 	c #BF6FA0",
"[ 	c #BC66A2",
"} 	c #A963A8",
"| 	c #A876AD",
"1 	c #8853AB",
"2 	c #8341A1",
"3 	c #6D3A96",
"4 	c #6A438D",
"5 	c #704194",
"6 	c #804087",
"7 	c #904C8B",
"8 	c #A76496",
"9 	c #A36A87",
"0 	c #61454F",
"a 	c #140811",
"b 	c #010001",
"c 	c #0C020E",
"d 	c #703164",
"e 	c #CE73A3",
"f 	c #AB499A",
"g 	c #6D2E8F",
"h 	c #4C4495",
"i 	c #445BB8",
"j 	c #69B2DA",
"k 	c #80CFE9",
"l 	c #46A7E6",
"m 	c #257CCA",
"n 	c #25ACCD",
"o 	c #1FD6D6",
"p 	c #1FD4BC",
"q 	c #2EC5AD",
"r 	c #22849C",
"s 	c #22658F",
"t 	c #303E83",
"u 	c #854094",
"v 	c #CA95A8",
"w 	c #70485B",
"x 	c #0D0308",
"y 	c #000102",
"z 	c #1A0815",
"A 	c #A26B88",
"B 	c #B362A0",
"C 	c #50136E",
"D 	c #4257A0",
"E 	c #67B8D6",
"F 	c #8AE2F3",
"G 	c #51B8F5",
"H 	c #78DFF8",
"I 	c #7FE0F5",
"J 	c #66D5F6",
"K 	c #36A1DC",
"L 	c #16A6CD",
"M 	c #0AF0E8",
"N 	c #05FACE",
"O 	c #07F7D7",
"P 	c #08F7D3",
"Q 	c #15F1E0",
"R 	c #27DADE",
"S 	c #3271B0",
"T 	c #5E1A83",
"U 	c #D795BA",
"V 	c #A57288",
"W 	c #24081F",
"X 	c #010201",
"Y 	c #010002",
"Z 	c #020000",
"` 	c #010103",
" .	c #30132F",
"..	c #C284A6",
"+.	c #963294",
"@.	c #61398E",
"#.	c #86AFCE",
"$.	c #8BE0F1",
"%.	c #7EE0F6",
"&.	c #9AF1F9",
"*.	c #4E9EE8",
"=.	c #79D4F9",
"-.	c #6CD3F8",
";.	c #53C4F3",
">.	c #4BC6F3",
",.	c #148CD3",
"'.	c #0EF1E1",
").	c #02FCDC",
"!.	c #02F9BD",
"~.	c #02F9C4",
"{.	c #04FACA",
"].	c #07F9CA",
"^.	c #1CE8CB",
"/.	c #2D7DA6",
"(.	c #44158D",
"_.	c #CA90B5",
":.	c #C69CA8",
"<.	c #270F22",
"[.	c #2C1125",
"}.	c #CF8EB0",
"|.	c #922997",
"1.	c #7C61B1",
"2.	c #9DCCDA",
"3.	c #9BF2F5",
"4.	c #91F0F9",
"5.	c #85E6F9",
"6.	c #81E4F6",
"7.	c #82E4F9",
"8.	c #54C0F4",
"9.	c #81E5FA",
"0.	c #68D1F4",
"a.	c #65D3FA",
"b.	c #2489C9",
"c.	c #15CADC",
"d.	c #03FBDD",
"e.	c #04F9C8",
"f.	c #04F9D5",
"g.	c #01F8D2",
"h.	c #03F7D9",
"i.	c #05E5D7",
"j.	c #12D1CD",
"k.	c #248CC3",
"l.	c #4E3E89",
"m.	c #D99FC1",
"n.	c #B38796",
"o.	c #0E030E",
"p.	c #0E0311",
"q.	c #BB829C",
"r.	c #AC289E",
"s.	c #B66FB4",
"t.	c #D0D2CF",
"u.	c #DEF4E1",
"v.	c #C1F9ED",
"w.	c #8AE9F9",
"x.	c #91EDF6",
"y.	c #93F0F8",
"z.	c #8CEDF8",
"A.	c #48B4EE",
"B.	c #83E8FC",
"C.	c #2794E9",
"D.	c #1E8DE0",
"E.	c #3DBBF4",
"F.	c #11A5E3",
"G.	c #09FADC",
"H.	c #02FABE",
"I.	c #01FCBA",
"J.	c #03FBD0",
"K.	c #07EFE0",
"L.	c #07D9DC",
"M.	c #06F2D6",
"N.	c #1CEEBF",
"O.	c #4A8592",
"P.	c #75177E",
"Q.	c #EAC3CB",
"R.	c #644353",
"S.	c #030102",
"T.	c #7A4D69",
"U.	c #BF52AE",
"V.	c #A41F9D",
"W.	c #BBAFAF",
"X.	c #D1E6D4",
"Y.	c #AFEDEE",
"Z.	c #9EF3F3",
"`.	c #9AF2F9",
" +	c #89ECF7",
".+	c #7EE4F8",
"++	c #74D9F8",
"@+	c #4DBBEC",
"#+	c #84E6FA",
"$+	c #47A9E1",
"%+	c #5AC8F6",
"&+	c #37B0F1",
"*+	c #29A8E3",
"=+	c #15DBE2",
"-+	c #09F9CE",
";+	c #07F5D2",
">+	c #09E2DB",
",+	c #09B4E4",
"'+	c #05E4E5",
")+	c #08F3D4",
"!+	c #23F2DA",
"~+	c #5AA3C8",
"{+	c #5C1880",
"]+	c #A7509C",
"^+	c #C5B1AE",
"/+	c #11080C",
"(+	c #020001",
"_+	c #1D091B",
":+	c #D292B5",
"<+	c #9C079E",
"[+	c #793F7E",
"}+	c #D5D2CF",
"|+	c #D1C5B4",
"1+	c #DEEBDD",
"2+	c #DBF5E4",
"3+	c #A6F1F0",
"4+	c #82DDF2",
"5+	c #BFF4EE",
"6+	c #A3F0F4",
"7+	c #59C6F1",
"8+	c #34A3E3",
"9+	c #34A2E8",
"0+	c #64CFF1",
"a+	c #45B3ED",
"b+	c #32A5E7",
"c+	c #2AC7EF",
"d+	c #1ACED3",
"e+	c #18D0CC",
"f+	c #16C2B4",
"g+	c #11BADB",
"h+	c #15F5D3",
"i+	c #22E7E0",
"j+	c #4FEEE1",
"k+	c #80DECD",
"l+	c #5C4178",
"m+	c #590962",
"n+	c #DDB3BE",
"o+	c #4E2D48",
"p+	c #69485C",
"q+	c #BD59AF",
"r+	c #5F0461",
"s+	c #A07AA7",
"t+	c #E0D1BA",
"u+	c #BCDCCD",
"v+	c #A8E4DE",
"w+	c #A0E8EC",
"x+	c #A0EBF1",
"y+	c #A9F0F2",
"z+	c #61C2EC",
"A+	c #6ECCF1",
"B+	c #7EC9F5",
"C+	c #A2D8F6",
"D+	c #B7DFF2",
"E+	c #A0E8F7",
"F+	c #ADF3F6",
"G+	c #93E7F4",
"H+	c #6FDEF3",
"I+	c #5BD0EE",
"J+	c #60D9EC",
"K+	c #3AADDA",
"L+	c #50EBEC",
"M+	c #5AFAE3",
"N+	c #3FCBE4",
"O+	c #70D6C5",
"P+	c #57AD79",
"Q+	c #468D44",
"R+	c #494C47",
"S+	c #A16691",
"T+	c #9A6381",
"U+	c #030105",
"V+	c #060108",
"W+	c #B28797",
"X+	c #8C1C8E",
"Y+	c #6B0574",
"Z+	c #C0A8B7",
"`+	c #F4E091",
" @	c #DCCE76",
".@	c #D1C380",
"+@	c #C0DBBD",
"@@	c #A8E3E4",
"#@	c #8ADBF1",
"$@	c #B1C2E3",
"%@	c #ACA6E1",
"&@	c #9E9FE2",
"*@	c #8BA3EC",
"=@	c #7FA2E6",
"-@	c #74A1E7",
";@	c #81B7F0",
">@	c #C4D4E3",
",@	c #E9E9D9",
"'@	c #E2F4DF",
")@	c #B3F2EA",
"!@	c #8CEFF5",
"~@	c #7CE4F0",
"{@	c #55C2E2",
"]@	c #AEF4CA",
"^@	c #42AC81",
"/@	c #2CB625",
"(@	c #1AAD12",
"_@	c #308B2C",
":@	c #653665",
"<@	c #D5AEAE",
"[@	c #0E010F",
"}@	c #150315",
"|@	c #DFA4BD",
"1@	c #810784",
"2@	c #620E6D",
"3@	c #A99577",
"4@	c #DEA62F",
"5@	c #D1B228",
"6@	c #A2A841",
"7@	c #86B492",
"8@	c #B8C4C9",
"9@	c #C39CC9",
"0@	c #BD8DC7",
"a@	c #7F99E5",
"b@	c #3B8DE6",
"c@	c #116EC8",
"d@	c #04447E",
"e@	c #0D454C",
"f@	c #207881",
"g@	c #64A5C9",
"h@	c #B1BADF",
"i@	c #D3E7E0",
"j@	c #DFEFDF",
"k@	c #CDF8E8",
"l@	c #A0F2F2",
"m@	c #76D1D8",
"n@	c #89E587",
"o@	c #27AA3F",
"p@	c #10B20A",
"q@	c #09AE07",
"r@	c #1B9515",
"s@	c #4B234B",
"t@	c #EED2C2",
"u@	c #31132C",
"v@	c #270924",
"w@	c #E5AAC3",
"x@	c #9B05A6",
"y@	c #752C58",
"z@	c #E5B635",
"A@	c #D8A010",
"B@	c #DEA50B",
"C@	c #C4AF1D",
"D@	c #B9CC72",
"E@	c #CB91A3",
"F@	c #C873A2",
"G@	c #6E91D8",
"H@	c #248FE3",
"I@	c #5EC8F9",
"J@	c #1A7BCA",
"K@	c #6E7583",
"L@	c #C4763A",
"M@	c #CE7436",
"N@	c #48825D",
"O@	c #898A98",
"P@	c #CC94B1",
"Q@	c #E2EEE2",
"R@	c #BAF1EF",
"S@	c #81D6E8",
"T@	c #90E7B1",
"U@	c #35BC51",
"V@	c #3CD919",
"W@	c #1FC609",
"X@	c #11B80A",
"Y@	c #18AD11",
"Z@	c #4B304D",
"`@	c #DABCB5",
" #	c #5D344E",
".#	c #33142F",
"+#	c #E19FBF",
"@#	c #900497",
"##	c #7D395A",
"$#	c #D39422",
"%#	c #D89311",
"&#	c #DEA70E",
"*#	c #D2B516",
"=#	c #C4C851",
"-#	c #C28C7D",
";#	c #C9435E",
">#	c #B190B4",
",#	c #98E0ED",
"'#	c #79DEF2",
")#	c #95B6C2",
"!#	c #EF6E4B",
"~#	c #F9360E",
"{#	c #F8330C",
"]#	c #A65645",
"^#	c #596392",
"/#	c #C56D8F",
"(#	c #7AC6EA",
"_#	c #74DAF6",
":#	c #92E6D7",
"<#	c #5DD470",
"[#	c #1FBA26",
"}#	c #35F00D",
"|#	c #30ED06",
"1#	c #0FB407",
"2#	c #119110",
"3#	c #3C294C",
"4#	c #BD8EA5",
"5#	c #785161",
"6#	c #33172E",
"7#	c #DB94BA",
"8#	c #B909BD",
"9#	c #911693",
"0#	c #C59A44",
"a#	c #F0C111",
"b#	c #EBBC0E",
"c#	c #EDC00D",
"d#	c #ECC21B",
"e#	c #D8BF58",
"f#	c #CF9162",
"g#	c #D1725C",
"h#	c #F3DAA6",
"i#	c #E3E6C7",
"j#	c #ED6C5C",
"k#	c #F9593F",
"l#	c #FA3D17",
"m#	c #F83C14",
"n#	c #C86D54",
"o#	c #225A93",
"p#	c #566897",
"q#	c #07447C",
"r#	c #2183CC",
"s#	c #287F9C",
"t#	c #20964B",
"u#	c #1BB412",
"v#	c #1CAE14",
"w#	c #33E80D",
"x#	c #24DD09",
"y#	c #2BC012",
"z#	c #3D4749",
"A#	c #A15E91",
"B#	c #895D72",
"C#	c #2B0C26",
"D#	c #E191B9",
"E#	c #A61AA1",
"F#	c #E45DCA",
"G#	c #80286A",
"H#	c #E2BB43",
"I#	c #ECC616",
"J#	c #F0C70B",
"K#	c #F2C509",
"L#	c #F8D415",
"M#	c #F0CF20",
"N#	c #E6C02D",
"O#	c #EFE476",
"P#	c #F5E1AE",
"Q#	c #EF7C6A",
"R#	c #F58F6F",
"S#	c #F86C4A",
"T#	c #F7724F",
"U#	c #EB9A79",
"V#	c #5D7AA1",
"W#	c #093865",
"X#	c #6A6854",
"Y#	c #46606B",
"Z#	c #16557B",
"`#	c #42D94B",
" $	c #32EA11",
".$	c #2BE50C",
"+$	c #20CC0C",
"@$	c #22DD08",
"#$	c #43D023",
"$$	c #413257",
"%$	c #984D8F",
"&$	c #88566D",
"*$	c #020201",
"=$	c #1E041B",
"-$	c #E7A1C1",
";$	c #6B1665",
">$	c #720E75",
",$	c #8B0B9B",
"'$	c #8D2D94",
")$	c #B0755A",
"!$	c #E7C732",
"~$	c #E9DC1D",
"{$	c #E6D910",
"]$	c #CAC816",
"^$	c #D9D92B",
"/$	c #BC8F85",
"($	c #BF9ED2",
"_$	c #D4C6DB",
":$	c #D1ADB4",
"<$	c #E6AF9A",
"[$	c #F69A7E",
"}$	c #F29B7C",
"|$	c #D1A19A",
"1$	c #536567",
"2$	c #E48A0A",
"3$	c #E28A0A",
"4$	c #77724A",
"5$	c #144E5C",
"6$	c #4CD847",
"7$	c #44FB10",
"8$	c #2DDC0E",
"9$	c #45F710",
"0$	c #337A46",
"a$	c #3B0A52",
"b$	c #A25695",
"c$	c #72455A",
"d$	c #160114",
"e$	c #DE9AB5",
"f$	c #C55CA4",
"g$	c #140218",
"h$	c #3C0641",
"i$	c #621F50",
"j$	c #913282",
"k$	c #913484",
"l$	c #9D536B",
"m$	c #A17053",
"n$	c #947E52",
"o$	c #8D9766",
"p$	c #6D7189",
"q$	c #7B5FB1",
"r$	c #650C85",
"s$	c #43148D",
"t$	c #7FD7DD",
"u$	c #D8DDBC",
"v$	c #F4C8B0",
"w$	c #B6BFB6",
"x$	c #E1811E",
"y$	c #F97806",
"z$	c #F97804",
"A$	c #E7880B",
"B$	c #67624C",
"C$	c #1A2F49",
"D$	c #39B14B",
"E$	c #31C423",
"F$	c #5EE63E",
"G$	c #392574",
"H$	c #34043E",
"I$	c #BC7AA9",
"J$	c #57334B",
"K$	c #1D051C",
"L$	c #DA4FA7",
"M$	c #9A2F79",
"N$	c #13021D",
"O$	c #840594",
"P$	c #8A0270",
"Q$	c #630253",
"R$	c #430F3C",
"S$	c #6A314D",
"T$	c #952E8D",
"U$	c #994099",
"V$	c #6D4088",
"W$	c #172D75",
"X$	c #424B87",
"Y$	c #6D0274",
"Z$	c #375C7A",
"`$	c #0CAA52",
" %	c #38B65C",
".%	c #DFCFA5",
"+%	c #C4B5A0",
"@%	c #F1610C",
"#%	c #F85C08",
"$%	c #F87704",
"%%	c #EB8104",
"&%	c #F47F0A",
"*%	c #6A1B73",
"=%	c #401E5C",
"-%	c #526F74",
";%	c #462C73",
">%	c #500666",
",%	c #4F0655",
"'%	c #E8BCC6",
")%	c #401E37",
"!%	c #6B4953",
"~%	c #D84995",
"{%	c #590C50",
"]%	c #1C0430",
"^%	c #A104C7",
"/%	c #C903C1",
"(%	c #B403AA",
"_%	c #620472",
":%	c #0D020F",
"<%	c #14050C",
"[%	c #67353D",
"}%	c #A44A7F",
"|%	c #428A6D",
"1%	c #585182",
"2%	c #660676",
"3%	c #257468",
"4%	c #09BB63",
"5%	c #09B354",
"6%	c #9FD6A3",
"7%	c #CE4699",
"8%	c #ED4233",
"9%	c #F95D06",
"0%	c #FA6A07",
"a%	c #FB6805",
"b%	c #F6710B",
"c%	c #871D84",
"d%	c #610477",
"e%	c #5D056B",
"f%	c #850592",
"g%	c #60066D",
"h%	c #B66FA6",
"i%	c #F1CBC5",
"j%	c #250B1F",
"k%	c #020203",
"l%	c #3E1734",
"m%	c #D248A7",
"n%	c #AB1F84",
"o%	c #54034B",
"p%	c #6E0691",
"q%	c #B504EB",
"r%	c #CB02EB",
"s%	c #C203E6",
"t%	c #6A058F",
"u%	c #0B0310",
"v%	c #010203",
"w%	c #301313",
"x%	c #783346",
"y%	c #974B60",
"z%	c #902479",
"A%	c #44676F",
"B%	c #0BBA6B",
"C%	c #09B768",
"D%	c #7ACEB8",
"E%	c #B5418D",
"F%	c #CF622E",
"G%	c #F86D07",
"H%	c #F76407",
"I%	c #F96A06",
"J%	c #D16230",
"K%	c #71038A",
"L%	c #760483",
"M%	c #8E0796",
"N%	c #930B91",
"O%	c #DA99C1",
"P%	c #FBE7D4",
"Q%	c #BA758E",
"R%	c #080109",
"S%	c #290A21",
"T%	c #DB6C98",
"U%	c #E835B3",
"V%	c #91028B",
"W%	c #340228",
"X%	c #440669",
"Y%	c #9405DF",
"Z%	c #BD03EC",
"`%	c #D703F7",
" &	c #D402EE",
".&	c #89089F",
"+&	c #09010B",
"@&	c #020002",
"#&	c #010202",
"$&	c #020101",
"%&	c #160507",
"&&	c #B4596D",
"*&	c #8E5D79",
"=&	c #30AD9D",
"-&	c #1FBFA6",
";&	c #5CA1C4",
">&	c #5E6E9F",
",&	c #E57F0B",
"'&	c #F87B05",
")&	c #F77906",
"!&	c #E2770D",
"~&	c #743EA1",
"{&	c #7904A0",
"]&	c #6F0479",
"^&	c #A61B9C",
"/&	c #DC84C0",
"(&	c #F9E5D4",
"_&	c #E284A7",
":&	c #370E2E",
"<&	c #020100",
"[&	c #0A030A",
"}&	c #AE6F8E",
"|&	c #EC82B9",
"1&	c #D130AB",
"2&	c #77026E",
"3&	c #2F0234",
"4&	c #62059F",
"5&	c #C205F3",
"6&	c #CA07E9",
"7&	c #DD05F5",
"8&	c #D202F8",
"9&	c #7105A3",
"0&	c #050209",
"a&	c #030208",
"b&	c #310631",
"c&	c #0B0216",
"d&	c #0B010C",
"e&	c #833650",
"f&	c #C65294",
"g&	c #550D74",
"h&	c #4786D7",
"i&	c #3582E4",
"j&	c #2D6CBA",
"k&	c #B57F25",
"l&	c #DD890D",
"m&	c #875447",
"n&	c #763D88",
"o&	c #6819B7",
"p&	c #7C048A",
"q&	c #C73AA7",
"r&	c #E557B9",
"s&	c #FDE3D5",
"t&	c #DF7CA5",
"u&	c #450B3B",
"v&	c #020202",
"w&	c #6B3956",
"x&	c #E572B3",
"y&	c #770B72",
"z&	c #6E0578",
"A&	c #49044E",
"B&	c #220233",
"C&	c #470589",
"D&	c #49068C",
"E&	c #5A089B",
"F&	c #4D047A",
"G&	c #9804DF",
"H&	c #470870",
"I&	c #13041D",
"J&	c #0D0316",
"K&	c #39054D",
"L&	c #320746",
"M&	c #540541",
"N&	c #7B1C54",
"O&	c #CF4CA6",
"P&	c #841586",
"Q&	c #3E3296",
"R&	c #3890F2",
"S&	c #3C8ADF",
"T&	c #9D6234",
"U&	c #99373C",
"V&	c #681D99",
"W&	c #610499",
"X&	c #8C108E",
"Y&	c #DE6FB5",
"Z&	c #EA4DB0",
"`&	c #FBC3CE",
" *	c #F8D4CC",
".*	c #5A1550",
"+*	c #67314C",
"@*	c #96287E",
"#*	c #210327",
"$*	c #9A248E",
"%*	c #A12E7F",
"&*	c #300723",
"**	c #1F052A",
"=*	c #110321",
"-*	c #340564",
";*	c #7008A1",
">*	c #8707B5",
",*	c #5D0686",
"'*	c #040309",
")*	c #020204",
"!*	c #030203",
"~*	c #040202",
"{*	c #170115",
"]*	c #81105E",
"^*	c #E781B3",
"/*	c #E2ABC3",
"(*	c #813587",
"_*	c #3447C3",
":*	c #508DE8",
"<*	c #4F0F6F",
"[*	c #6F048B",
"}*	c #931E9A",
"|*	c #D464B4",
"1*	c #F6BBC0",
"2*	c #F49BC5",
"3*	c #F18CBA",
"4*	c #FBE9D7",
"5*	c #CF8DA9",
"6*	c #130114",
"7*	c #0B0308",
"8*	c #7E2B62",
"9*	c #9D2985",
"0*	c #FAB8C6",
"a*	c #F398A7",
"b*	c #881D6C",
"c*	c #AF0764",
"d*	c #950618",
"e*	c #34071C",
"f*	c #130413",
"g*	c #06010A",
"h*	c #05030A",
"i*	c #2F0317",
"j*	c #6E0537",
"k*	c #5A0553",
"l*	c #1A0214",
"m*	c #060208",
"n*	c #6E095A",
"o*	c #C51A9F",
"p*	c #D764BB",
"q*	c #D267B5",
"r*	c #3C0F7E",
"s*	c #4957D9",
"t*	c #630377",
"u*	c #780288",
"v*	c #D46EB2",
"w*	c #F4CAC3",
"x*	c #FCD9D1",
"y*	c #EA5AB4",
"z*	c #FDDCCD",
"A*	c #F9DDCE",
"B*	c #682B53",
"C*	c #030103",
"D*	c #6C2E56",
"E*	c #F484BA",
"F*	c #E078AA",
"G*	c #591150",
"H*	c #8B055C",
"I*	c #3D0739",
"J*	c #23074D",
"K*	c #1B063E",
"L*	c #14062C",
"M*	c #260640",
"N*	c #720C82",
"O*	c #AF0A85",
"P*	c #DE04B0",
"Q*	c #AF059D",
"R*	c #30031D",
"S*	c #2D031A",
"T*	c #A62586",
"U*	c #A90AA3",
"V*	c #850588",
"W*	c #350751",
"X*	c #1515D3",
"Y*	c #5D0474",
"Z*	c #7C0787",
"`*	c #DB3FB7",
" =	c #ED79B1",
".=	c #F5AAC5",
"+=	c #F16BBC",
"@=	c #FDE8D7",
"#=	c #D386A7",
"$=	c #140414",
"%=	c #771E5E",
"&=	c #EC5EAE",
"*=	c #811570",
"==	c #0D030D",
"-=	c #0F031D",
";=	c #3C057A",
">=	c #3D0588",
",=	c #380785",
"'=	c #14054C",
")=	c #51069F",
"!=	c #8F06D5",
"~=	c #A205CD",
"{=	c #BE04DF",
"]=	c #C304DF",
"^=	c #930488",
"/=	c #0A010A",
"(=	c #9B3578",
"_=	c #AF11A3",
":=	c #9C0C96",
"<=	c #480963",
"[=	c #1209AB",
"}=	c #530569",
"|=	c #BA17AE",
"1=	c #DF12C8",
"2=	c #E953BD",
"3=	c #EF7FB8",
"4=	c #F8A5C5",
"5=	c #FADDCE",
"6=	c #6F1F62",
"7=	c #020104",
"8=	c #21061C",
"9=	c #CD67A1",
"0=	c #5B1555",
"a=	c #3A0739",
"b=	c #33044F",
"c=	c #7505A9",
"d=	c #9F07BC",
"e=	c #7107A7",
"f=	c #2A0560",
"g=	c #410593",
"h=	c #8803D8",
"i=	c #DA04F1",
"j=	c #DB04E5",
"k=	c #B403DF",
"l=	c #6D058D",
"m=	c #070205",
"n=	c #680F5A",
"o=	c #912181",
"p=	c #BB209B",
"q=	c #240840",
"r=	c #0B1E8D",
"s=	c #420554",
"t=	c #B419B4",
"u=	c #C60CBA",
"v=	c #CB16B2",
"w=	c #EB5BA5",
"x=	c #FACACB",
"y=	c #E6ABBE",
"z=	c #230323",
"A=	c #030201",
"B=	c #692553",
"C=	c #F6B1C0",
"D=	c #C34E97",
"E=	c #6A056E",
"F=	c #7E05A2",
"G=	c #300364",
"H=	c #500483",
"I=	c #980AAE",
"J=	c #A906BE",
"K=	c #C306CD",
"L=	c #D104E2",
"M=	c #D903E2",
"N=	c #AC03E6",
"O=	c #5F067E",
"P=	c #010200",
"Q=	c #50034E",
"R=	c #A70B9A",
"S=	c #1F0837",
"T=	c #0C1E80",
"U=	c #610664",
"V=	c #CE14BE",
"W=	c #D810C0",
"X=	c #E939BE",
"Y=	c #D027B2",
"Z=	c #FBD2CE",
"`=	c #C88BA8",
" -	c #09010C",
".-	c #200324",
"+-	c #D284AF",
"@-	c #E98BB0",
"#-	c #450344",
"$-	c #570859",
"%-	c #570677",
"&-	c #0F0321",
"*-	c #040218",
"=-	c #070113",
"--	c #270357",
";-	c #C005AB",
">-	c #DB048C",
",-	c #C306C6",
"'-	c #A904D5",
")-	c #6A057A",
"!-	c #010302",
"~-	c #430243",
"{-	c #8E0592",
"]-	c #88078E",
"^-	c #200535",
"/-	c #0E1B74",
"(-	c #8E2E82",
"_-	c #F1A1C6",
":-	c #E744C7",
"<-	c #E532BC",
"[-	c #B315A3",
"}-	c #FDE1D6",
"|-	c #BD7D9C",
"1-	c #040206",
"2-	c #371A2E",
"3-	c #F2C2BD",
"4-	c #E47AB6",
"5-	c #D150AC",
"6-	c #9E3585",
"7-	c #7E0772",
"8-	c #330232",
"9-	c #060102",
"0-	c #280549",
"a-	c #7E0598",
"b-	c #570675",
"c-	c #9907BD",
"d-	c #BA05C9",
"e-	c #420557",
"f-	c #020305",
"g-	c #42043E",
"h-	c #8D058F",
"i-	c #950691",
"j-	c #19052B",
"k-	c #111B6B",
"l-	c #AD3E93",
"m-	c #E755B2",
"n-	c #DC20B9",
"o-	c #D23BB0",
"p-	c #C22BB1",
"q-	c #FDE4D3",
"r-	c #BB799C",
"s-	c #785165",
"t-	c #F7D3C5",
"u-	c #C159AA",
"v-	c #770679",
"w-	c #81067D",
"x-	c #A71D97",
"y-	c #8F048C",
"z-	c #5D0251",
"A-	c #510448",
"B-	c #50054D",
"C-	c #640666",
"D-	c #7F0983",
"E-	c #6C0C73",
"F-	c #4D065D",
"G-	c #0B020E",
"H-	c #46024C",
"I-	c #940599",
"J-	c #68056B",
"K-	c #20083B",
"L-	c #151A65",
"M-	c #B55F9D",
"N-	c #DC81B7",
"O-	c #E159B6",
"P-	c #C73CAD",
"Q-	c #BD3CAC",
"R-	c #FDE5D0",
"S-	c #C481A6",
"T-	c #4B293D",
"U-	c #F6D1C4",
"V-	c #C871AD",
"W-	c #C432A2",
"X-	c #7E1776",
"Y-	c #E187B4",
"Z-	c #E592B7",
"`-	c #E395BE",
" ;	c #E69DC1",
".;	c #E098BE",
"+;	c #E5A7C1",
"@;	c #C657A6",
"#;	c #7B0480",
"$;	c #690660",
"%;	c #06010C",
"&;	c #310434",
"*;	c #66046B",
"=;	c #540556",
"-;	c #190830",
";;	c #211658",
">;	c #B3519C",
",;	c #DA56B5",
"';	c #E86BBB",
");	c #B527A4",
"!;	c #BE46A8",
"~;	c #FEE2D2",
"{;	c #C381A4",
"];	c #080108",
"^;	c #010100",
"/;	c #090209",
"(;	c #A47285",
"_;	c #E990B3",
":;	c #B15094",
"<;	c #DB88AC",
"[;	c #FBD4CA",
"};	c #FCE2D1",
"|;	c #FDE1D5",
"1;	c #FDE1D4",
"2;	c #FEE0D1",
"3;	c #FBDECF",
"4;	c #D368AD",
"5;	c #75067D",
"6;	c #18021E",
"7;	c #38043A",
"8;	c #820481",
"9;	c #40023F",
"0;	c #030206",
"a;	c #240A34",
"b;	c #C02FA7",
"c;	c #E421C0",
"d;	c #DE4EB2",
"e;	c #DF72BD",
"f;	c #C965AB",
"g;	c #FEDFCE",
"h;	c #BE7B9E",
"i;	c #070108",
"j;	c #0F040E",
"k;	c #583249",
"l;	c #8C5973",
"m;	c #9C6281",
"n;	c #A37386",
"o;	c #B88E9B",
"p;	c #E5B9BD",
"q;	c #F8CBC8",
"r;	c #FBCCC5",
"s;	c #F7C1BF",
"t;	c #D56AA9",
"u;	c #150319",
"v;	c #000003",
"w;	c #000101",
"x;	c #240527",
"y;	c #440646",
"z;	c #1D041D",
"A;	c #040103",
"B;	c #340E34",
"C;	c #D13DB2",
"D;	c #DF38B4",
"E;	c #CA21B7",
"F;	c #D94FAE",
"G;	c #DA6CAA",
"H;	c #FBDEC7",
"I;	c #B8719D",
"J;	c #010104",
"K;	c #060106",
"L;	c #170517",
"M;	c #3B1037",
"N;	c #602458",
"O;	c #8C2980",
"P;	c #D2539E",
"Q;	c #18021A",
"R;	c #0A0309",
"S;	c #1B041F",
"T;	c #050105",
"U;	c #400C40",
"V;	c #CA50AA",
"W;	c #BA36A9",
"X;	c #C508B3",
"Y;	c #E558AF",
"Z;	c #B63591",
"`;	c #FCD2C5",
" >	c #9B4C82",
".>	c #040104",
"+>	c #150217",
"@>	c #C12D92",
"#>	c #1A0219",
"$>	c #341132",
"%>	c #CA5BA5",
"&>	c #D34DB3",
"*>	c #E419C0",
"=>	c #CC3CA3",
"->	c #9D287D",
";>	c #F495A9",
">>	c #873468",
",>	c #20031B",
"'>	c #170714",
")>	c #7C2B58",
"!>	c #B6528B",
"~>	c #C02A9D",
"{>	c #954274",
"]>	c #2A0E21",
"^>	c #371824",
"/>	c #1F0C16",
"(>	c #000200",
"_>	c #0B0206",
":>	c #25060F",
"<>	c #380A1E",
"[>	c #1D090D",
"}>	c #000002",
"                                                                            ",
"                                                . +                         ",
"                        @ # $ % & * = - ; > , ' ) ! ~ { @ ] ^               ",
"                      / ( _ : < [ } | 1 2 3 4 5 6 7 8 9 0 a b               ",
"                ] ] c d e f g h i j k l m n o p q r s t u v w x . b         ",
"                y z A B C D E F G H I J K L M N O P Q R S T U V W X Y       ",
"            Z `  ...+.@.#.$.%.&.*.=.-.;.>.,.'.).!.~.{.].^./.(._.:.<.#       ",
"            Y [.}.|.1.2.3.4.5.6.7.8.9.0.a.b.c.d.e.f.g.h.i.j.k.l.m.n.o.      ",
"            p.q.r.s.t.u.v.w.x.y.z.A.B.C.D.E.F.G.H.I.J.K.L.M.N.O.P.Q.R.S.    ",
"          / T.U.V.W.X.Y.Z.`. +.+++@+#+$+%+&+*+=+-+;+>+,+'+)+!+~+{+]+^+/++   ",
"        (+_+:+<+[+}+|+1+2+3+4+5+6+7+8+9+0+a+b+c+d+e+f+g+h+i+j+k+l+m+n+o+S.  ",
"        ` p+q+r+s+t+u+v+w+x+y+z+A+B+C+D+E+F+G+H+I+J+K+L+M+N+O+P+Q+R+S+T+U+  ",
"        V+W+X+Y+Z+`+ @.@+@@@#@$@%@&@*@=@-@;@>@,@'@)@!@~@{@]@^@/@(@_@:@<@[@  ",
"        }@|@1@2@3@4@5@6@7@8@9@0@a@b@c@d@e@f@g@h@i@j@k@l@m@n@o@p@q@r@s@t@u@  ",
"        v@w@x@y@z@A@B@C@D@E@F@G@H@I@J@K@L@M@N@O@P@Q@R@S@T@U@V@W@X@Y@Z@`@ #. ",
"        .#+#@###$#%#&#*#=#-#;#>#,#'#)#!#~#{#]#^#/#(#_#:#<#[#}#|#1#2#3#4#5#X ",
"        6#7#8#9#0#a#b#c#d#e#f#g#h#i#j#k#l#m#n#o#p#q#r#s#t#u#v#w#x#y#z#A#B#. ",
"        C#D#E#F#G#H#I#J#K#L#M#N#O#P#Q#R#S#T#U#V#W#X#Y#Z#`# $.$+$@$#$$$%$&$*$",
"        =$-$;$>$,$'$)$!$~${$]$^$/$($_$:$<$[$}$|$1$2$3$4$5$6$7$8$9$0$a$b$c$. ",
"        d$e$f$g$h$i$j$k$l$m$n$o$p$q$r$s$t$u$v$w$x$y$z$A$B$C$D$E$F$G$H$I$J$/ ",
"        K$L$M$N$O$P$Q$R$S$T$U$V$W$X$Y$Z$`$ %.%+%@%#%$%%%&%*%=%-%;%>%,%'%)%+ ",
"      . !%~%{%]%^%/%(%_%:%<%[%}%|%1%2%3%4%5%6%7%8%9%0%a%b%c%d%e%f%g%h%i%j%  ",
"    k%l%m%n%o%p%q%r%s%t%u%S.v%w%x%y%z%A%B%C%D%E%F%G%H%I%J%K%L%M%N%O%P%Q%R%  ",
"    S%T%U%V%W%X%Y%Z%`% &.&+&@&#&$&%&&&*&=&-&;&>&,&'&)&!&~&{&]&^&/&(&_&:&/   ",
"<&[&}&|&1&2&3&4&5&6&7&8&9&0&a&b&c&d&e&f&g&h&i&j&k&l&m&n&o&p&q&r&s&t&u&/ ^   ",
"v&w&x&y&z&A&B&C&D&E&F&G&H&I&J&K&L&M&N&O&P&Q&R&S&T&U&V&W&X&Y&Z&`& *.*k%      ",
"X +*@*#*$*%*&***=*-*;*>*,*'*)*!*~*{*]*^*/*(*_*:*<*[*}*|*1*2*3*4*5*6*(+      ",
"] 7*8*9*0*a*b*c*d*e*f*g*h*i*j*k*l*m*n*o*p*q*r*s*t*u*v*w*x*y*z*A*B*C*^       ",
"  ] !*D*E*F*G*H*I*J*K*L*M*N*O*P*Q*R*S*T*U*V*W*X*Y*Z*`* =.=+=@=#=$=y         ",
"    / %=&=*===-=;=>=,='=)=!=~={=]=^=/=(=_=:=<=[=}=|=1=2=3=4=5=6=7=          ",
"    / 8=9=0=a=b=c=d=e=f=g=h=i=j=k=l=m=n=o=p=q=r=s=t=u=v=w=x=y=z=b           ",
"    A=B=C=D=z=E=F=G=H=I=J=K=L=M=N=O=P=Q=U*R=S=T=U=V=W=X=Y=Z=`= -b           ",
"    v&.-+-@-#-$-%-&-*-=---;->-,-'-)-!-~-{-]-^-/-(-_-:-<-[-}-|-1-+           ",
"    . 2-3-4-5-6-7-8-9-)*0-a-b-c-d-e-f-g-h-i-j-k-l-m-n-o-p-q-r-1-b           ",
"    / s-t-u-v-w-x-y-z-A-B-C-D-E-F-G-A=H-I-J-K-L-M-N-O-P-Q-R-S-{ +           ",
"    . T-U-V-W-X-Y-Z-`- ;.;+;@;#;$;%;$&&;*;=;-;;;>;,;';);!;~;{;];^;          ",
"    . /;(;_;:;<;[;};|;1;2;3;4;5;6;. <&7;8;9;0;a;b;c;d;e;f;g;h;i;]           ",
"        j;k;l;m;n;o;p;q;r;s;t;u;v;  w;x;y;z;A;B;C;D;E;F;G;H;I;V+]           ",
"        # $&# J;@ K;L;M;N;O;P;Q;]   b R;S;c T;U;V;W;X;Y;Z;`; >.>+           ",
"                      . #&+>@>#>      ^;. . S.$>%>&>*>=>->;>>>C*+           ",
"                      b b v&,>T;^     ]       '>)>!>~>{>]>^>/>(>+           ",
"                                            + @ _>:><>[>$&                  ",
"                                              + + }>w;^                     ",
"                                                                            ",
"                                                                            "};
