/* XPM */
static const char * segmentation_xpm[] = {
"37 38 455 2",
"  	c None",
". 	c #050505",
"+ 	c #040404",
"@ 	c #070707",
"# 	c #060606",
"$ 	c #080808",
"% 	c #111111",
"& 	c #2D2D2D",
"* 	c #3C3C3C",
"= 	c #484848",
"- 	c #383838",
"; 	c #323232",
"> 	c #2E2E2E",
", 	c #303030",
"' 	c #393939",
") 	c #474747",
"! 	c #444444",
"~ 	c #3D3D3D",
"{ 	c #414141",
"] 	c #212121",
"^ 	c #090909",
"/ 	c #0A0A0A",
"( 	c #222222",
"_ 	c #494949",
": 	c #595959",
"< 	c #4F4F4F",
"[ 	c #343434",
"} 	c #242424",
"| 	c #232323",
"1 	c #454545",
"2 	c #3E3E3E",
"3 	c #0F0F0F",
"4 	c #404040",
"5 	c #353535",
"6 	c #1E1E1E",
"7 	c #272727",
"8 	c #363636",
"9 	c #252525",
"0 	c #202020",
"a 	c #313131",
"b 	c #4D4D4D",
"c 	c #333333",
"d 	c #1F1F1F",
"e 	c #2B2B2B",
"f 	c #282828",
"g 	c #262626",
"h 	c #2C2C2C",
"i 	c #121212",
"j 	c #0B0B0B",
"k 	c #0E0E0E",
"l 	c #0C0C0C",
"m 	c #131313",
"n 	c #3A3A3A",
"o 	c #505050",
"p 	c #151515",
"q 	c #1C1C1C",
"r 	c #5C5C5C",
"s 	c #2F2F2F",
"t 	c #161616",
"u 	c #373737",
"v 	c #5A5A5A",
"w 	c #747474",
"x 	c #1D1D1D",
"y 	c #171717",
"z 	c #6A6A6A",
"A 	c #292929",
"B 	c #373738",
"C 	c #3C3E3F",
"D 	c #424242",
"E 	c #4D5457",
"F 	c #404141",
"G 	c #6B6B6B",
"H 	c #6E6E6E",
"I 	c #6C6C6C",
"J 	c #525752",
"K 	c #4C5D4C",
"L 	c #3F3F3F",
"M 	c #616161",
"N 	c #464646",
"O 	c #829196",
"P 	c #00C0FF",
"Q 	c #575858",
"R 	c #7E7E7E",
"S 	c #809B80",
"T 	c #00FF00",
"U 	c #555755",
"V 	c #525952",
"W 	c #5F6E5F",
"X 	c #5D5D5D",
"Y 	c #6D6D6D",
"Z 	c #3B3B3B",
"` 	c #181818",
" .	c #565A5B",
"..	c #656F73",
"+.	c #ACB8BD",
"@.	c #909DA1",
"#.	c #879398",
"$.	c #859296",
"%.	c #84A195",
"&.	c #6E8F6E",
"*.	c #668066",
"=.	c #4B4B4B",
"-.	c #4A4A4A",
";.	c #1B1B1B",
">.	c #6F6F6F",
",.	c #2A2A2A",
"'.	c #4E5658",
").	c #5A6062",
"!.	c #697377",
"~.	c #A2B2B7",
"{.	c #A9B6BA",
"].	c #879498",
"^.	c #7A878B",
"/.	c #83A783",
"(.	c #96B896",
"_.	c #A1BEA1",
":.	c #7FA17F",
"<.	c #5A655A",
"[.	c #1A1A1A",
"}.	c #3F4243",
"|.	c #78868A",
"1.	c #A5B2B7",
"2.	c #9AA7AB",
"3.	c #899AA0",
"4.	c #6A7376",
"5.	c #A7B6BB",
"6.	c #A0ADB1",
"7.	c #91B191",
"8.	c #A3BFA3",
"9.	c #8DB18D",
"0.	c #8FB58F",
"a.	c #85A685",
"b.	c #83AA83",
"c.	c #6C886C",
"d.	c #212521",
"e.	c #686868",
"f.	c #545454",
"g.	c #4E4E4E",
"h.	c #2E3030",
"i.	c #8D9CA1",
"j.	c #9CADB3",
"k.	c #7D8B8F",
"l.	c #A1AEB2",
"m.	c #78868B",
"n.	c #77878D",
"o.	c #758388",
"p.	c #9CADB2",
"q.	c #B2BFC3",
"r.	c #B0BDC1",
"s.	c #84AD84",
"t.	c #8BA88B",
"u.	c #9FBB9F",
"v.	c #A7C3A7",
"w.	c #84A184",
"x.	c #9CB89C",
"y.	c #7B977B",
"z.	c #8CA88C",
"A.	c #85A185",
"B.	c #86A286",
"C.	c #698669",
"D.	c #515151",
"E.	c #1C1D1D",
"F.	c #798A8F",
"G.	c #B1BEC2",
"H.	c #A7B7BC",
"I.	c #86989D",
"J.	c #96A3A7",
"K.	c #8C999D",
"L.	c #9FACB0",
"M.	c #A4B1B5",
"N.	c #AEBBBF",
"O.	c #A7B4B8",
"P.	c #A1BDA1",
"Q.	c #A9C5A9",
"R.	c #93AF93",
"S.	c #8FAB8F",
"T.	c #89A589",
"U.	c #85A285",
"V.	c #374237",
"W.	c #636363",
"X.	c #29292A",
"Y.	c #B2BFC4",
"Z.	c #B5C2C6",
"`.	c #94A1A5",
" +	c #828F93",
".+	c #8D9A9F",
"++	c #AFBCC0",
"@+	c #A8B5B9",
"#+	c #A0ACB1",
"$+	c #99B599",
"%+	c #9DB99D",
"&+	c #9EBA9E",
"*+	c #A2BEA2",
"=+	c #91AD91",
"-+	c #A0BCA0",
";+	c #9FBC9F",
">+	c #A6C2A6",
",+	c #607D60",
"'+	c #191919",
")+	c #565656",
"!+	c #6C797D",
"~+	c #B6C3C7",
"{+	c #ACB9BD",
"]+	c #AFBBC0",
"^+	c #ADB9BE",
"/+	c #ABB8BC",
"(+	c #809C80",
"_+	c #9DBA9D",
":+	c #8AA68A",
"<+	c #94B094",
"[+	c #98B598",
"}+	c #9BB79B",
"|+	c #A5C1A5",
"1+	c #ACC8AC",
"2+	c #1F201F",
"3+	c #A3B0B4",
"4+	c #8A979C",
"5+	c #89969A",
"6+	c #929FA3",
"7+	c #B1BDC2",
"8+	c #B0BDC2",
"9+	c #96A4A9",
"0+	c #8FAC8F",
"a+	c #97B497",
"b+	c #97B397",
"c+	c #8DAA8D",
"d+	c #98B498",
"e+	c #9AB69A",
"f+	c #A8C4A8",
"g+	c #A4C0A4",
"h+	c #333B33",
"i+	c #B7C4C8",
"j+	c #808D91",
"k+	c #9CA9AD",
"l+	c #ADBABF",
"m+	c #AFBCC1",
"n+	c #9DAAAE",
"o+	c #ADBABE",
"p+	c #AECBAE",
"q+	c #ADC9AD",
"r+	c #465D46",
"s+	c #98A4A9",
"t+	c #8F9CA0",
"u+	c #99A5AA",
"v+	c #A7B4B9",
"w+	c #9EAAAF",
"x+	c #84A084",
"y+	c #87A487",
"z+	c #91AE91",
"A+	c #506A50",
"B+	c #525252",
"C+	c #141414",
"D+	c #9EABAF",
"E+	c #A3B0B5",
"F+	c #98A5A9",
"G+	c #88A788",
"H+	c #7E9A7E",
"I+	c #7F9C7F",
"J+	c #89A689",
"K+	c #9BB89B",
"L+	c #799679",
"M+	c #9AB79A",
"N+	c #3E503E",
"O+	c #555555",
"P+	c #434343",
"Q+	c #A8B5BA",
"R+	c #889599",
"S+	c #ACB9BE",
"T+	c #919EA2",
"U+	c #9FABB0",
"V+	c #95A1A6",
"W+	c #87A887",
"X+	c #8BA78B",
"Y+	c #7A967A",
"Z+	c #8EAA8E",
"`+	c #88A488",
" @	c #7E9B7E",
".@	c #323A32",
"+@	c #97A4A8",
"@@	c #A5B1B6",
"#@	c #A2AFB3",
"$@	c #87A387",
"%@	c #8EAB8E",
"&@	c #3C4A3C",
"*@	c #7E8D92",
"=@	c #8A979B",
"-@	c #869397",
";@	c #93A2A7",
">@	c #678368",
",@	c #8DA98D",
"'@	c #809D80",
")@	c #678467",
"!@	c #585858",
"~@	c #717E82",
"{@	c #FFFC00",
"]@	c #A8CD74",
"^@	c #95B295",
"/@	c #95B195",
"(@	c #8CA98C",
"_@	c #597459",
":@	c #5B5B5B",
"<@	c #6A777B",
"[@	c #A6B3B7",
"}@	c #A4A457",
"|@	c #89AD84",
"1@	c #9CB99C",
"2@	c #373F37",
"3@	c #596568",
"4@	c #909CA1",
"5@	c #B2B266",
"6@	c #AFAF63",
"7@	c #ACAC60",
"8@	c #ADAD60",
"9@	c #7D9A7D",
"0@	c #8FB18F",
"a@	c #1B1C1B",
"b@	c #465154",
"c@	c #AAB7BB",
"d@	c #99A6AA",
"e@	c #9EACB0",
"f@	c #A5A558",
"g@	c #A8A85B",
"h@	c #9F9F52",
"i@	c #A1A155",
"j@	c #A4A458",
"k@	c #7E9D7E",
"l@	c #92AE92",
"m@	c #96B296",
"n@	c #739973",
"o@	c #101010",
"p@	c #5A676B",
"q@	c #AAAA5E",
"r@	c #AAAA5D",
"s@	c #A7A75A",
"t@	c #ACAC5F",
"u@	c #ABAB5F",
"v@	c #AEAE61",
"w@	c #98984C",
"x@	c #A1A154",
"y@	c #A9A95C",
"z@	c #A6A659",
"A@	c #5A685A",
"B@	c #696969",
"C@	c #363E40",
"D@	c #A4A453",
"E@	c #B7B76A",
"F@	c #AEAE62",
"G@	c #B1B165",
"H@	c #B8B86C",
"I@	c #B0B064",
"J@	c #B5B569",
"K@	c #B3B366",
"L@	c #B2B265",
"M@	c #B6B669",
"N@	c #A2A256",
"O@	c #656559",
"P@	c #787878",
"Q@	c #4C4C4C",
"R@	c #444D50",
"S@	c #B2B25E",
"T@	c #B4B467",
"U@	c #A7A75B",
"V@	c #B4B468",
"W@	c #B9B96C",
"X@	c #BABA6E",
"Y@	c #BEBE72",
"Z@	c #BABA6D",
"`@	c #BBBB6F",
" #	c #B3B367",
".#	c #ABAB5E",
"+#	c #A5A559",
"@#	c #B3B35C",
"##	c #0D0D0D",
"$#	c #1B1B12",
"%#	c #BCBC70",
"&#	c #C1C174",
"*#	c #C0C074",
"=#	c #CECE82",
"-#	c #C2C276",
";#	c #BFBF73",
">#	c #BEBE71",
",#	c #CBCB7E",
"'#	c #BDBD71",
")#	c #B8B86B",
"!#	c #B8B861",
"~#	c #4B4B17",
"{#	c #CFCF82",
"]#	c #C5C578",
"^#	c #CDCD80",
"/#	c #C9C97C",
"(#	c #99994D",
"_#	c #A3A357",
":#	c #96964A",
"<#	c #C3C376",
"[#	c #38381C",
"}#	c #C4C478",
"|#	c #C0C073",
"1#	c #C6C679",
"2#	c #B7B76B",
"3#	c #ACAC54",
"4#	c #A3A353",
"5#	c #BBBB6E",
"6#	c #303017",
"7#	c #606060",
"8#	c #727233",
"9#	c #CACA7E",
"0#	c #BCBC6F",
"a#	c #ADAD61",
"b#	c #525247",
"c#	c #4D4D1F",
"d#	c #5E5E5E",
"e#	c #828235",
"f#	c #A7A74F",
"g#	c #5C5C55",
"h#	c #4F4F20",
"i#	c #767676",
"j#	c #707070",
"k#	c #999999",
"l#	c #656565",
"m#	c #383835",
"n#	c #6A6A29",
"o#	c #AFAF62",
"p#	c #545423",
"q#	c #3B3B20",
"r#	c #757575",
"s#	c #8E8E8E",
"t#	c #8A8A8A",
"u#	c #BABABA",
"v#	c #878787",
"w#	c #818181",
"x#	c #777777",
"y#	c #666666",
"z#	c #7D7D7D",
"A#	c #4B4B37",
"B#	c #656523",
"C#	c #7F7F7F",
"D#	c #676767",
"E#	c #8B8B8B",
"F#	c #C2C2C2",
"G#	c #626262",
"H#	c #737373",
"I#	c #535353",
"J#	c #727272",
"K#	c #5F5F5F",
"L#	c #858585",
"M#	c #979797",
"N#	c #717171",
"O#	c #969696",
"P#	c #C8C8C8",
"Q#	c #868686",
"R#	c #898989",
"S#	c #BFBFBF",
"T#	c #7B7B7B",
"U#	c #575757",
"V#	c #AEAEAE",
". + . @ . # # # $ @ % & * = - ; & & > , ' ) ! ~ { ~ ] $ # # # + ^ # # $ $ ",
"# $ $ @ + $ @ / ( _ : < [ ( ] ( ( ] } ( ( & ( } | , 1 2 % # $ # @ @ + # . ",
"# # # / / # 3 { 4 5 & | ] 6 7 ; 5 ' 2 8 ; ' 9 6 0 9 6 a b c / $ $ # # # # ",
"$ @ $ $ / d < [ e f g c e h ] i j k l i m i 9 , n g 0 6 f o _ p # + $ @ . ",
"$ @ @ @ q r 5 ( > 7 & 6 p % 3 l k f s % % 3 l % t 7 u f } s v w x $ # # # ",
". # # y z c 9 A [ 6 % ] B C D E F G H I J K L n 7 t % 5 { 8 > 4 M j @ # . ",
". # / r N f & u p d 2 1 O P P P P Q R S T T U V W _ > 3 ] ~ s [ X n $ @ $ ",
"^ $ & Y } s Z ` ,  .....P +.@.#.$.P %.T &.*.T T T =.= -.;.x * * * >.3 # @ ",
". ^ : ~ ,.D y '.).P P P !.~.{.].^.P P T /.(./._.:.T T T <.0 > u [ r = $ . ",
"$ [.I f _ e }.P P |.1.2.3.4.5.6.2.P T 7.8.8.8.9.0.a.7.b.T c.d.5 - ~ e.;.. ",
"@ f.g.[ - h.i.P j.k.l.m.n.o.p.q.r.P T s.t.u.v.w.x.y.z.A.B.T C.;.L Z 4 D.$ ",
"3 I ,.= E.F.P G.H.I.J.K.L.M.N.G.O.P T A.B.P.Q.R.x.S.w.T.U.x.T V.f { & W.m ",
"h _ | ,.X.P M.Y.Z.`. +.+r.q.++@+#+P T $+%+&+*+P.=+-+;+8.S.>+T ,+'+n s )+7 ",
"{ h 8 q !+P L.q.~+@+L.`.{+]+^+/+M.P T (+_+:+<+*+[+T.}+|+Q.1+-+T 2+- s * 5 ",
"_ [.> p P 3+4+5+6+{+7+N.8+G.{+O.9+P T 0+a+b+U.c+-+d+e+>+f+g+}+T h+A ,.- L ",
"_ m h 6 P i+l.2.j+k+l+++m+/+n+M.o+P T R.y.U.e+(+<+*+8.$+%+p+q+T r+] g h N ",
"L p s d P G.s+t+u+v+o+r.^+J.L.w+`.P T B.x+A.y+y.z+P.&+U.R.>+*+T A+} h e B+",
"~ C+s ] P L.6+@.D+E+N.q.{.2.F+5+j+P T G+U.c+H+I+J+u.K+L+:+M+g+T N+,.,., O+",
"P+p , g P o+Q+5+R+F+S+o+D+].T+U+V+P T W+z+X+X+Y+Z+%+u.`+(+ @R.T .@q > , r ",
"{ % A [.P +@@@++1.{+++T+2.#@n+J.6+P T U.<+d+<+S.$@b+&+}+%@(+:+T &@| c } : ",
"L t [ d *@P /+l.@+r.o+=@-@U+6.#@;@P >@T `+,@$+}+b+}+x.X+H+'@w.T )@d Z s !@",
"* y ; 6 ~@P t+K.M.N./+O.3+1.+@+@P {@{@T ]@^@/@(@X+x.&+[+:+$+d+T _@y ' ] :@",
"8 ` [ x <@P M.M.6+[@N.F+R+n+P P {@{@}@{@T |@x+$@X+e+d+b+d+1@<+T 2@'+4 '+f.",
"c [.4 '+3@P l.4@5+R+M.P P P {@{@5@6@7@8@{@T T T 9@0@A.'@x.u.=+T a@C+v '+= ",
"9 ,.D % b@P c@d@R+e@P {@{@{@7@7@f@g@h@i@j@{@{@{@T T T k@l@m@T n@o@/ z q { ",
"] u n / p@P `.P P P {@q@r@s@t@u@v@i@w@x@j@y@z@s@{@{@{@T T T T A@l k B@d Z ",
"| 1 5 3 C@P P {@{@{@D@6@E@r@F@G@H@8@I@J@v@K@L@M@t@N@N@{@{@{@O@- l m P@d D.",
"0 - Q@j / R@{@S@T@U@g@G@V@W@W@X@Y@Z@V@`@ #V@Z@`@.#N@+#.#5@@#{@##j q c c f.",
"7 '+B+$ ^ $#{@M@%#&#%#E@*#=#-#;#F@f@g@t@G@>#,#'#;#'#%#K@)#!#~#/ ^ ,.' n 1 ",
"] '+O+m @ k {@{#]#Z@W@>#^#/#%#'#U@(#_#U@:#t@<#X@X@K@s@r@;#{@m @ l n ) ' ; ",
"d d < A ##j [#{@}#%#|#*#1#`@V@u@2#3#{@{@4#7@v@8@7@5#`@Y@{@6#o@l > g.G 1 ] ",
"` 6 s 7#h ##j 8#{@9#0#M@T@a#v@h@K@{@n b#{@F@7@T@6@a#5@{@c#k p u B+e.H _ i ",
"t 6 a P+d#| 7 q e#{@v@Z@E@I@U@f#{@{@P+g#{@{@U@V@7@q@{@h#g B+i#j#w k#z ) $ ",
"/ ;.L g.l#_ B+f.m#n#{@W@o#o#{@{@f y y x 9 p#{@{@{@{@q#A j#r#s#t#Y u#v#h $ ",
"^ p =.1 w#x#D y#z#h A#{@{@{@B#( a Z u s ,.a Q@)+N v M C#O+D#t#Y E#F#:@k @ ",
"^ t ) D r#v#D.)+G#B@H#R r D.o b { I#J#o K#H : D#L#M#z N#* K#O#< O#P#; $ $ ",
"$ y 2 { P@Q#f.J#e.P+P+b J#2 =.L 7 - , s 1 P+& X d#N B+X s x#R#e.H S#Z $ @ ",
"@ ;.h X T#L#1 G r I X f.I#L U#z o =.!@) * )+Q@-._ !@W.Q@u z#w#I D#V#o $ @ "};
