/* XPM */
static const char * tools_xpm[] = {
"23 23 193 2",
"  	c None",
". 	c #5C5C6D",
"+ 	c #ADAEBE",
"@ 	c #C3C3D1",
"# 	c #ADAEBC",
"$ 	c #89899C",
"% 	c #A6A7BC",
"& 	c #EDEDF2",
"* 	c #F1F1F4",
"= 	c #EDEEF2",
"- 	c #B4B5C7",
"; 	c #C8C8D2",
"> 	c #9E9EAE",
", 	c #9898AB",
"' 	c #E6E6EE",
") 	c #E9E9EF",
"! 	c #E8E8EF",
"~ 	c #B4B4C6",
"{ 	c #C6C6D0",
"] 	c #E2E2E9",
"^ 	c #CCCCDD",
"/ 	c #797A8B",
"( 	c #5D5D6E",
"_ 	c #B9BAD0",
": 	c #5E5E6F",
"< 	c #AEAEC1",
"[ 	c #E2E3EB",
"} 	c #E3E3EB",
"| 	c #D8D9E4",
"1 	c #808091",
"2 	c #D8D7DD",
"3 	c #D4D5E1",
"4 	c #A0A0B5",
"5 	c #797A8E",
"6 	c #DBDBE7",
"7 	c #C5C6D8",
"8 	c #767686",
"9 	c #DBDBE6",
"0 	c #DDDDE7",
"a 	c #DCDDE7",
"b 	c #8A8B9A",
"c 	c #ADADB7",
"d 	c #B9BAC4",
"e 	c #494951",
"f 	c #76778A",
"g 	c #D5D6E3",
"h 	c #D8D8E4",
"i 	c #BCBDCE",
"j 	c #727284",
"k 	c #666777",
"l 	c #B7B7C9",
"m 	c #D6D6E3",
"n 	c #D6D7E3",
"o 	c #888897",
"p 	c #BCBCC4",
"q 	c #B5B6C0",
"r 	c #C9CADB",
"s 	c #D0D0DE",
"t 	c #CFD0DE",
"u 	c #CECEDE",
"v 	c #CDCDDE",
"w 	c #D1D1DE",
"x 	c #90909F",
"y 	c #ACACB6",
"z 	c #BCBCC6",
"A 	c #8D8EA0",
"B 	c #CACADB",
"C 	c #C8C9D9",
"D 	c #CACBDA",
"E 	c #CCCCDB",
"F 	c #CDCDDC",
"G 	c #CFCFDD",
"H 	c #D1D2DF",
"I 	c #D2D3E0",
"J 	c #DEDFE9",
"K 	c #A7A7B2",
"L 	c #B7B7C2",
"M 	c #A2A3B4",
"N 	c #CDCEDF",
"O 	c #CDCEDC",
"P 	c #CECEDD",
"Q 	c #CFCDDB",
"R 	c #BFA4AE",
"S 	c #BA8D94",
"T 	c #D5D8E5",
"U 	c #C4C4CD",
"V 	c #C5C5CF",
"W 	c #747580",
"X 	c #636372",
"Y 	c #A8A9B9",
"Z 	c #C5C6D7",
"` 	c #C2BCCB",
" .	c #AC3633",
"..	c #D38884",
"+.	c #A06A6E",
"@.	c #C1C4CF",
"#.	c #9B9BA2",
"$.	c #9495A4",
"%.	c #D18380",
"&.	c #EBBDBA",
"*.	c #C04D48",
"=.	c #9A6266",
"-.	c #E4E9F3",
";.	c #EAEAF0",
">.	c #E6E6ED",
",.	c #9898A7",
"'.	c #C36A68",
").	c #EBB6B4",
"!.	c #DB7F7B",
"~.	c #C8433C",
"{.	c #A9150E",
"].	c #C4A7AE",
"^.	c #E0E1EA",
"/.	c #F0F0F4",
"(.	c #ECECF1",
"_.	c #9292A1",
":.	c #8E1413",
"<.	c #E3A9A6",
"[.	c #EEB6B3",
"}.	c #DF807B",
"|.	c #CE453D",
"1.	c #9A2321",
"2.	c #A55356",
"3.	c #DFE1EA",
"4.	c #DFDFE8",
"5.	c #E5E5EC",
"6.	c #F4F4F7",
"7.	c #EFEFF3",
"8.	c #9F9FAD",
"9.	c #A93330",
"0.	c #F1BCB8",
"a.	c #F1B8B5",
"b.	c #E47F7A",
"c.	c #D84A42",
"d.	c #AC231E",
"e.	c #9098A8",
"f.	c #D8D8E3",
"g.	c #E1E1E9",
"h.	c #E2E2EA",
"i.	c #F9FAFB",
"j.	c #9696A3",
"k.	c #A92521",
"l.	c #FBCFCD",
"m.	c #F3B3AF",
"n.	c #E87F79",
"o.	c #DD4C44",
"p.	c #BE2822",
"q.	c #7C7C8B",
"r.	c #DCDDE5",
"s.	c #E4E4EB",
"t.	c #E7E7ED",
"u.	c #E9E9F0",
"v.	c #9798A6",
"w.	c #A72623",
"x.	c #F6C2C0",
"y.	c #F5B4B0",
"z.	c #ED7F79",
"A.	c #E44B43",
"B.	c #D12C24",
"C.	c #838493",
"D.	c #DCDCE5",
"E.	c #EBEBF0",
"F.	c #D3D3E0",
"G.	c #FDFDFE",
"H.	c #B9B9C4",
"I.	c #FBAEA9",
"J.	c #F8B3B0",
"K.	c #F27F78",
"L.	c #EB4D44",
"M.	c #DA2E25",
"N.	c #8B1E1F",
"O.	c #878797",
"P.	c #DFDFE7",
"Q.	c #E9E9EE",
"R.	c #EBECF1",
"S.	c #CACBD3",
"T.	c #D76B67",
"U.	c #FCB3AF",
"V.	c #F77F78",
"W.	c #F14D44",
"X.	c #EC3229",
"Y.	c #962120",
"Z.	c #797988",
"`.	c #E0E0E7",
" +	c #CCCDD6",
".+	c #C5413C",
"++	c #FF7870",
"@+	c #FE4E44",
"#+	c #E02F27",
"$+	c #952120",
"%+	c #91919F",
"&+	c #A62320",
"*+	c #AE2622",
"                                              ",
"                                              ",
"          . + @ # $                           ",
"            % & * = -                 ; >     ",
"              , ' ) ! ~           { ] ^ /     ",
"    ( _ :       < [ } | 1         2 3 4       ",
"    5 6 7 .     8 9 0 a b       c d e         ",
"    f g h i j k l m n n o     p q             ",
"      r s t u v s s s w x   y z               ",
"      A B C D E F G H I J K L                 ",
"        M N O P Q R S T U V W                 ",
"          X Y Z `  ...+.@.#.' $.              ",
"                  %.&.*.=.-.;.>.,.            ",
"                '.).!.~.{.].^./.(._.          ",
"            :.<.[.}.|.1.2.3.4.5.6.7.8.        ",
"          9.0.a.b.c.d.  e.f.g.h.;.i.* j.      ",
"        k.l.m.n.o.p.      q.r.s.t.>.u.6.v.    ",
"      w.x.y.z.A.B.          C.D.t.E.F.G.H.    ",
"      I.J.K.L.M.N.            O.P.Q.R.S.      ",
"    T.U.V.W.X.Y.                Z.`. +        ",
"    .+++@+#+$+                    %+          ",
"      &+*+                                    ",
"                                              "};
